svg/u1f33a.svg

<svg viewBox="0 0 128 128" xmlns="http://www.w3.org/2000/svg">
  <path d="M49.02,111.67c0,0-4.87,5.89-9.35,7.86c-4.48,1.96-7.54,1.96-8.41,1.26 c-0.86-0.71-0.86-3.46-0.86-3.46s-1.65,3.69-11.16,4.48s-10.61-1.26-10.92-2.51c-0.31-1.26,1.49-2.67,2.75-4.4 c1.26-1.73,4.17-6.52,4.17-6.52s-3.14,0.47-3.46-1.02c-0.31-1.49,1.49-3.46,2.67-5.34c1.18-1.89,2.59-4.09,4.87-5.58 s22.11-20.01,22.11-20.01l11.7,7.55L49.02,111.67z" fill="#2E7E31"/>
  <path d="M25.01,107.71c1.21,1.17,3.77-0.71,6.83-2.73s5.19-3.5,4.32-5.03c-0.87-1.53-4.37-0.93-7.43,1.86 C26.09,104.2,23.64,106.4,25.01,107.71z" fill="#5B9922"/>
  <path d="M84.23,109.21c0,0,4.41,3.1,8.73,4.88c4.32,1.78,8.34,3.46,9.86,2.41c1.8-1.25,1.12-4.28,1.12-4.28 s2.82,2.91,8.17,4.13s10.89,1.69,11.17,1.13c0.28-0.56-0.66-6.95-2.25-10.61s-3.94-6.38-3.94-6.38s3.47,0.09,3.94-1.6 s-3.92-8.72-9.33-13.32c-4.47-3.8-17.81-7.06-17.81-7.06l-13.24,5.07L84.23,109.21z" fill="#2E7E31"/>
  <path d="M100.78,95.69c-0.93,1.06,0.37,2.48,4.1,6.09c3.73,3.6,5.53,5.96,6.58,4.91 c1.06-1.06-0.06-4.04-4.1-8.07S101.91,94.41,100.78,95.69z" fill="#5A9821"/>
  <path d="M94.9,42.63c-0.84-0.93,12.29-8.72,10.85-16.59c-1.43-7.87-5.64-7.3-8.27-10.1s-1.57-5.81-7.8-9.17 c-5.56-3-9.01,0.46-11.14,0.17c-4.78-0.65-9.01-3.91-15,0.7s-4.08,15.38-3.91,16.94c0.17,1.56,0.44,5.53-0.19,5.81 c-0.63,0.28-3.35-14.18-7.01-16.36C43.97,8.99,42,14.2,42,14.2s-10.36-9.72-19.78-2.88c-8.1,5.88-3.1,16.36-3.24,17.53 s-4.53,2.99-3.78,9.44c1,8.58,13.73,10.76,13.67,12.59c-0.05,1.53-14.99-5.07-20.78,2.84c-3.77,5.14-1.02,9.06-1.12,10.94 c-0.11,1.88-5.6,6.21-2.33,15.32c2.62,7.28,7.92,6.83,9.16,8.28s1.69,6.19,7.52,7.95c5.83,1.76,11.26-1.57,14.03-3.97 s4.99-4.45,6.04-4.33c1.1,0.13-7.19,11.46,1.08,21.16c4.49,5.26,7.91,4.14,9.29,4.54s2.23,5.12,12.75,6.25 c10.52,1.13,11.26-5.05,13.95-5.8c2.69-0.75,10.06-1.11,12.5-11.54c2.03-8.63-4.85-16.4-3.93-17.12c0.91-0.72,7.56,9.21,19.88,4.88 c6.46-2.27,6.8-8.74,6.8-8.74s10.37-4.19,11.18-15.6c0.64-8.91-7.26-13.22-7.72-14.34s-0.58-5.9-5.65-9.39 C105.06,37.8,95.73,43.56,94.9,42.63z" fill="#EA4B8D"/>
  <path d="M67.54,42.8c0,0,7.14-11.08,11.9-8.22c3.58,2.15-4.65,12.33-4.65,12.33s8.79-6.27,10.49-3.59 c2.29,3.61-4.64,9.1-4.64,9.1s10.88-3.98,12.7,0.25c2.09,4.87-13.41,7.16-13.41,7.16s15.39-0.39,14.74,5.03 c-0.54,4.51-15.31,1.59-15.31,1.59s9.53,8.37,6.3,11.44c-3.89,3.7-14.67-6.22-14.67-6.22s-0.76,14.26-5.39,14.83 c-4.81,0.59-7.85-14.31-7.85-14.31s-5.95,11.78-9.91,9.05c-3.44-2.38,1.13-10.53,1.13-10.53s-10.58,8.56-13.33,5.02 c-2.75-3.54,8.16-11.84,8.16-11.84s-11.61,1.8-12.18-4.04c-0.57-5.88,12.04-7.03,12.04-7.03s-5.21-1.32-4.59-4.63 c0.62-3.31,11.48,0.49,11.48,0.49s-5.39-6.84-2.97-9.37c3.89-4.08,13.53,7.1,13.53,7.1s1.35-12.97,5.3-12.05 C69.54,35.08,67.54,42.8,67.54,42.8z" fill="#C10375"/>
  <path d="M49.75,28.12c0,0,4.38,2.8,9.85,10.45c7.56,10.58,9.33,17.54,9.33,17.54s-0.52,4.45-4.62,5.31 c-4.92,1.03-6.74-2.67-6.74-2.67s-0.81-7.8-4.93-15.05c-3.54-6.22-8.59-10.75-8.59-10.75s-2.68,1.82-5.56,0.72s-3.48-4.14-3.48-4.14 s-4.04,0.37-5.43-3s0.61-6.12,0.61-6.12s-4.9-4.96-0.23-8.36c3.71-2.69,7.18,1.85,7.18,1.85s2.86-1.21,5.42,0.28s2.05,5,2.05,5 s3.64,0.74,4.51,3.37C50.04,25.32,49.75,28.12,49.75,28.12z" fill="#FDC11E"/>
  <path d="M38.28,24.96c-1.32,1.95-0.65,4.44,1.71,5.14s3.53-0.57,4.15-2.06s-0.33-3.4-1.62-4.07 S39.4,23.3,38.28,24.96z" fill="#FEE165"/>
  <path d="M35.13,21.59c-1.45-1.02-3.11-0.98-4.1,0.62c-0.99,1.6-0.12,3.64,1.05,4.3 c1.17,0.67,3.11,0.79,3.97-0.56C37.11,24.28,36.54,22.58,35.13,21.59z" fill="#FEE165"/>
  <path d="M31.19,13.43c-2.23,1-1.96,4.08-0.35,4.95s4.07,0.2,4.28-2.12C35.29,14.26,33.68,12.32,31.19,13.43z" fill="#FEE165"/>
  <path d="M38.32,16.05c-1.92,1-2.01,3.65-0.92,4.93c1.33,1.55,5.04,1.42,5.2-1.65S40.37,14.99,38.32,16.05z" fill="#FEE165"/>
</svg>

<svg viewBox="0 0 128 128" xmlns="http://www.w3.org/2000/svg">
  <defs/>
  <path d="M49.02,111.67 C49.02,111.67 44.15,117.56 39.67,119.53 C35.19,121.49 32.13,121.49 31.26,120.79 C30.4,120.08 30.4,117.33 30.4,117.33 C30.4,117.33 28.75,121.02 19.24,121.81 C9.73,122.6 8.63,120.55 8.32,119.3 C8.01,118.04 9.81,116.63 11.07,114.9 C12.33,113.17 15.24,108.38 15.24,108.38 C15.24,108.38 12.1,108.85 11.78,107.36 C11.47,105.87 13.27,103.9 14.45,102.02 C15.63,100.13 17.04,97.93 19.32,96.44 C21.6,94.95 41.43,76.43 41.43,76.43 L53.13,83.98 L49.02,111.67 Z" fill="#2E7E31"/>
  <path d="M25.01,107.71 C26.22,108.88 28.78,107 31.84,104.98 C34.9,102.96 37.03,101.48 36.16,99.95 C35.29,98.42 31.79,99.02 28.73,101.81 C26.09,104.2 23.64,106.4 25.01,107.71 Z" fill="#5B9922"/>
  <path d="M84.23,109.21 C84.23,109.21 88.64,112.31 92.96,114.09 C97.28,115.87 101.3,117.55 102.82,116.5 C104.62,115.25 103.94,112.22 103.94,112.22 C103.94,112.22 106.76,115.13 112.11,116.35 C117.46,117.57 123,118.04 123.28,117.48 C123.56,116.92 122.62,110.53 121.03,106.87 C119.44,103.21 117.09,100.49 117.09,100.49 C117.09,100.49 120.56,100.58 121.03,98.89 C121.5,97.2 117.11,90.17 111.7,85.57 C107.23,81.77 93.89,78.51 93.89,78.51 L80.65,83.58 L84.23,109.21 Z" fill="#2E7E31"/>
  <path d="M100.78,95.69 C99.85,96.75 101.15,98.17 104.88,101.78 C108.61,105.38 110.41,107.74 111.46,106.69 C112.52,105.63 111.4,102.65 107.36,98.62 C103.32,94.59 101.91,94.41 100.78,95.69 Z" fill="#5A9821"/>
  <path d="M94.9,42.63 C94.06,41.7 107.19,33.91 105.75,26.04 C104.32,18.17 100.11,18.74 97.48,15.94 C94.85,13.14 95.91,10.13 89.68,6.77 C84.12,3.77 80.67,7.23 78.54,6.94 C73.76,6.29 69.53,3.03 63.54,7.64 C57.55,12.25 59.46,23.02 59.63,24.58 C59.8,26.14 60.07,30.11 59.44,30.39 C58.81,30.67 56.09,16.21 52.43,14.03 C43.97,8.99 42,14.2 42,14.2 C42,14.2 31.64,4.48 22.22,11.32 C14.12,17.2 19.12,27.68 18.98,28.85 C18.84,30.02 14.45,31.84 15.2,38.29 C16.2,46.87 28.93,49.05 28.87,50.88 C28.82,52.41 13.88,45.81 8.09,53.72 C4.32,58.86 7.07,62.78 6.97,64.66 C6.86,66.54 1.37,70.87 4.64,79.98 C7.26,87.26 12.56,86.81 13.8,88.26 C15.04,89.71 15.49,94.45 21.32,96.21 C27.15,97.97 32.58,94.64 35.35,92.24 C38.12,89.84 40.34,87.79 41.39,87.91 C42.49,88.04 34.2,99.37 42.47,109.07 C46.96,114.33 50.38,113.21 51.76,113.61 C53.14,114.01 53.99,118.73 64.51,119.86 C75.03,120.99 75.77,114.81 78.46,114.06 C81.15,113.31 88.52,112.95 90.96,102.52 C92.99,93.89 86.11,86.12 87.03,85.4 C87.94,84.68 94.59,94.61 106.91,90.28 C113.37,88.01 113.71,81.54 113.71,81.54 C113.71,81.54 124.08,77.35 124.89,65.94 C125.53,57.03 117.63,52.72 117.17,51.6 C116.71,50.48 116.59,45.7 111.52,42.21 C105.06,37.8 95.73,43.56 94.9,42.63 Z" fill="#EA4B8D"/>
  <path d="M67.54,42.8 C67.54,42.8 74.68,31.72 79.44,34.58 C83.02,36.73 74.79,46.91 74.79,46.91 C74.79,46.91 83.58,40.64 85.28,43.32 C87.57,46.93 80.64,52.42 80.64,52.42 C80.64,52.42 91.52,48.44 93.34,52.67 C95.43,57.54 79.93,59.83 79.93,59.83 C79.93,59.83 95.32,59.44 94.67,64.86 C94.13,69.37 79.36,66.45 79.36,66.45 C79.36,66.45 88.89,74.82 85.66,77.89 C81.77,81.59 70.99,71.67 70.99,71.67 C70.99,71.67 70.23,85.93 65.6,86.5 C60.79,87.09 57.75,72.19 57.75,72.19 C57.75,72.19 51.8,83.97 47.84,81.24 C44.4,78.86 48.97,70.71 48.97,70.71 C48.97,70.71 38.39,79.27 35.64,75.73 C32.89,72.19 43.8,63.89 43.8,63.89 C43.8,63.89 32.19,65.69 31.62,59.85 C31.05,53.97 43.66,52.82 43.66,52.82 C43.66,52.82 38.45,51.5 39.07,48.19 C39.69,44.88 50.55,48.68 50.55,48.68 C50.55,48.68 45.16,41.84 47.58,39.31 C51.47,35.23 61.11,46.41 61.11,46.41 C61.11,46.41 62.46,33.44 66.41,34.36 C69.54,35.08 67.54,42.8 67.54,42.8 Z" fill="#C10375"/>
  <path d="M49.75,28.12 C49.75,28.12 54.13,30.92 59.6,38.57 C67.16,49.15 68.93,56.11 68.93,56.11 C68.93,56.11 68.41,60.56 64.31,61.42 C59.39,62.45 57.57,58.75 57.57,58.75 C57.57,58.75 56.76,50.95 52.64,43.7 C49.1,37.48 44.05,32.95 44.05,32.95 C44.05,32.95 41.37,34.77 38.49,33.67 C35.61,32.57 35.01,29.53 35.01,29.53 C35.01,29.53 30.97,29.9 29.58,26.53 C28.19,23.16 30.19,20.41 30.19,20.41 C30.19,20.41 25.29,15.45 29.96,12.05 C33.67,9.36 37.14,13.9 37.14,13.9 C37.14,13.9 40,12.69 42.56,14.18 C45.12,15.67 44.61,19.18 44.61,19.18 C44.61,19.18 48.25,19.92 49.12,22.55 C50.04,25.32 49.75,28.12 49.75,28.12 Z" fill="#FDC11E"/>
  <path d="M38.28,24.96 C36.96,26.91 37.63,29.4 39.99,30.1 C42.35,30.8 43.52,29.53 44.14,28.04 C44.76,26.55 43.81,24.64 42.52,23.97 C41.23,23.3 39.4,23.3 38.28,24.96 Z" fill="#FEE165"/>
  <path d="M35.13,21.59 C33.68,20.57 32.02,20.61 31.03,22.21 C30.04,23.81 30.91,25.85 32.08,26.51 C33.25,27.18 35.19,27.3 36.05,25.95 C37.11,24.28 36.54,22.58 35.13,21.59 Z" fill="#FEE165"/>
  <path d="M31.19,13.43 C28.96,14.43 29.23,17.51 30.84,18.38 C32.45,19.25 34.91,18.58 35.12,16.26 C35.29,14.26 33.68,12.32 31.19,13.43 Z" fill="#FEE165"/>
  <path d="M38.32,16.05 C36.4,17.05 36.31,19.7 37.4,20.98 C38.73,22.53 42.44,22.4 42.6,19.33 C42.76,16.26 40.37,14.99 38.32,16.05 Z" fill="#FEE165"/>
</svg>
